X:41
T:Bath Carnival
S:Colin Hume's website,  colinhume.com  - chords can also be printed below the stave.
N:The Apted book uses the tune "Keppel's Delight", also available here.
Q:3/8=120
M:6/8
L:1/8
K:D
P:A
|: A | "D"dAA AAA | "/"dAA AAA | "Bm"fff "A7"fge | "D"dAF D2 A |\
"D"dAA AAA | "/"dAA AAA | "Bm"fff "E7"fb^g | "A"aec A2 :|
P:B
|: a | "G"ggg gag | "Em"ggg gbg | "A"eee ege | "D"fff faf |\
"Bm"ddd dfd | "Em"BBB Bgb | "A7"aaa aAA | "D"dAF D2 :|

